__todo__/discover.svg

<svg preserveAspectRatio="xMidYMid" viewBox="0 0 512 86" xmlns="http://www.w3.org/2000/svg" xmlns:xlink="http://www.w3.org/1999/xlink"><defs><linearGradient id="a" x1="19.414374%" x2="88.60065%" y1="9.06317%" y2="80.498842%"><stop offset="0" stop-color="#f34f26"/><stop offset="1" stop-color="#f69e35"/></linearGradient><path id="b" d="m270.356257.3647422c-23.98225 0-43.439637 18.7350483-43.439637 41.8577474 0 24.5831464 18.612031 42.9601801 43.439637 42.9601801 24.207783 0 43.321349-18.6199158 43.321349-42.4775701 0-23.7157101-18.985816-42.3403574-43.321349-42.3403574z"/><filter id="c" height="200%" width="200%" x="-50%" y="-50%"><feMorphology in="SourceAlpha" operator="erode" radius="1" result="shadowSpreadInner1"/><feGaussianBlur in="shadowSpreadInner1" result="shadowBlurInner1" stdDeviation="4"/><feOffset dx="3" dy="3" in="shadowBlurInner1" result="shadowOffsetInner1"/><feComposite in="shadowOffsetInner1" in2="SourceAlpha" k2="-1" k3="1" operator="arithmetic" result="shadowInnerInner1"/><feColorMatrix in="shadowInnerInner1" type="matrix" values="0 0 0 0 0   0 0 0 0 0   0 0 0 0 0  0 0 0 0.5 0"/></filter></defs><use fill="url(#a)" fill-rule="evenodd" xlink:href="#b"/><use filter="url(#c)" xlink:href="#b"/><path d="m23.7456761 1.8914302h-23.352964v81.4538516h23.231523c12.325482 0 21.2395736-2.9208948 29.059118-9.3982788 9.2784148-7.6949491 14.7811156-19.2980933 14.7811156-31.2892182 0-24.0484902-17.9653956-40.7663546-43.7187926-40.7663546zm18.5726011 61.1763437c-5.021668 4.5311721-11.4864346 6.488424-21.7600355 6.488424h-4.2677869v-53.8725296h4.2677869c10.2736009 0 16.4907538 1.8342336 21.7600355 6.5925164 5.494815 4.8860325 8.7721473 12.4516547 8.7721473 20.2648905 0 7.8290075-3.2773323 15.6595921-8.7721473 20.5266987zm32.4799717 20.2775079h15.8709311v-81.4538516h-15.8709311zm54.7273491-50.2087938c-9.538646-3.5344089-12.345986-5.865447-12.345986-10.2467892 0-5.1336461 4.998011-9.0386869 11.849181-9.0386869 4.763014 0 8.671209 1.9525203 12.836481 6.5798991l8.294269-10.85241748c-6.838553-5.99792815-15.020844-9.04657267-23.945975-9.04657267-14.397867 0-25.398537 10.01967855-25.398537 23.31984375 0 11.2467067 5.12576 16.9812496 20.031472 22.368818 6.232924 2.1875168 9.401432 3.646387 10.992784 4.6431502 3.174817 2.0771158 4.769323 4.9980106 4.769323 8.4157099 0 6.6051336-5.256665 11.4832803-12.350716 11.4832803-7.573509 0-13.673952-3.7820225-17.340842-10.8650347l-10.2467895 9.904546c7.3132775 10.7325537 16.1090815 15.5113394 28.2137625 15.5113394 16.487599 0 28.084434-11.0069789 28.084434-26.7580461 0-12.9484591-5.360756-18.8154831-23.442861-25.4190396zm28.448758 9.5212968c0 23.964901 18.815484 42.5248849 43.005918 42.5248849 6.838553 0 12.700845-1.3516236 19.914761-4.7582827v-18.6971966c-6.360674 6.3575199-11.980085 8.9156687-19.189269 8.9156687-15.997103 0-27.363674-11.6062986-27.363674-28.1017839 0-15.6264717 11.72143-27.9645711 26.638182-27.9645711 7.560891 0 13.311204 2.6858984 19.914761 9.1585509v-18.69561939c-6.961571-3.53125457-12.711885-4.98539334-19.552015-4.98539334-24.067416 0-43.368664 18.93534723-43.368664 42.60374253zm191.65139 13.9483768-21.742687-54.7147314h-17.345573l34.579168 83.5341217h8.54346l35.183218-83.5341217h-17.217823zm46.439389 26.7391202h45.065684v-13.7890839h-29.188445v-22.0013404h28.071818v-13.7922382h-28.071818v-18.078951h29.188445v-13.7922381h-45.065684zm107.95482-57.4148243c0-15.2589942-10.489671-24.0390273-28.822545-24.0390273h-23.57692v81.4538516h15.894589v-32.7370484h2.08027l21.974529 32.7370484h19.544129l-25.666653-34.3110511c11.98797-2.450902 18.572601-10.637924 18.572601-23.1037732zm-31.882229 13.4515723h-4.622647v-24.6825074h4.876569c9.915586 0 15.287384 4.1652716 15.287384 12.0920629 0 8.1775591-5.371798 12.5904445-15.541306 12.5904445z" fill="#0b1015"/></svg>

<?xml version="1.0" encoding="UTF-8"?>
<svg width="512px" height="86px" viewBox="0 0 512 86" version="1.1" xmlns="http://www.w3.org/2000/svg" xmlns:xlink="http://www.w3.org/1999/xlink" preserveAspectRatio="xMidYMid">
    <defs>
        <linearGradient x1="19.4143743%" y1="9.06316954%" x2="88.6006499%" y2="80.4988417%" id="linearGradient-1">
            <stop stop-color="#F34F26" offset="0%"></stop>
            <stop stop-color="#F69E35" offset="100%"></stop>
        </linearGradient>
        <path d="M270.356257,0.364742204 C246.374007,0.364742204 226.91662,19.0997905 226.91662,42.2224896 C226.91662,66.805636 245.528651,85.1826697 270.356257,85.1826697 C294.56404,85.1826697 313.677606,66.5627539 313.677606,42.7050996 C313.677606,18.9893895 294.69179,0.364742204 270.356257,0.364742204 Z" id="path-2"></path>
        <filter x="-50%" y="-50%" width="200%" height="200%" filterUnits="objectBoundingBox" id="filter-3">
            <feMorphology radius="1" operator="erode" in="SourceAlpha" result="shadowSpreadInner1"></feMorphology>
            <feGaussianBlur stdDeviation="4" in="shadowSpreadInner1" result="shadowBlurInner1"></feGaussianBlur>
            <feOffset dx="3" dy="3" in="shadowBlurInner1" result="shadowOffsetInner1"></feOffset>
            <feComposite in="shadowOffsetInner1" in2="SourceAlpha" operator="arithmetic" k2="-1" k3="1" result="shadowInnerInner1"></feComposite>
            <feColorMatrix values="0 0 0 0 0   0 0 0 0 0   0 0 0 0 0  0 0 0 0.5 0" type="matrix" in="shadowInnerInner1"></feColorMatrix>
        </filter>
    </defs>
    <g>
		<g>
			<use fill="url(#linearGradient-1)" fill-rule="evenodd" xlink:href="#path-2"></use>
			<use fill="black" fill-opacity="1" filter="url(#filter-3)" xlink:href="#path-2"></use>
		</g>
		<path d="M23.7456761,1.8914302 L0.392712098,1.8914302 L0.392712098,83.3452818 L23.6242351,83.3452818 C35.9497171,83.3452818 44.8638087,80.424387 52.6833531,73.947003 C61.9617679,66.2520539 67.4644687,54.6489097 67.4644687,42.6577848 C67.4644687,18.6092946 49.4990731,1.8914302 23.7456761,1.8914302 Z M42.3182772,63.0677739 C37.2966092,67.598946 30.8318426,69.5561979 20.5582417,69.5561979 L16.2904548,69.5561979 L16.2904548,15.6836683 L20.5582417,15.6836683 C30.8318426,15.6836683 37.0489955,17.5179019 42.3182772,22.2761847 C47.8130922,27.1622172 51.0904245,34.7278394 51.0904245,42.5410752 C51.0904245,50.3700827 47.8130922,58.2006673 42.3182772,63.0677739 Z M74.7982489,83.3452818 L90.66918,83.3452818 L90.66918,1.8914302 L74.7982489,1.8914302 L74.7982489,83.3452818 Z M129.525598,33.136488 C119.986952,29.6020791 117.179612,27.271041 117.179612,22.8896988 C117.179612,17.7560527 122.177623,13.8510119 129.028793,13.8510119 C133.791807,13.8510119 137.700002,15.8035322 141.865274,20.430911 L150.159543,9.57849352 C143.32099,3.58056537 135.138699,0.531920849 126.213568,0.531920849 C111.815701,0.531920849 100.815031,10.5515994 100.815031,23.8517646 C100.815031,35.0984713 105.940791,40.8330142 120.846503,46.2205826 C127.079427,48.4080994 130.247935,49.8669696 131.839287,50.8637328 C135.014104,52.9408486 136.60861,55.8617434 136.60861,59.2794427 C136.60861,65.8845763 131.351945,70.762723 124.257894,70.762723 C116.684385,70.762723 110.583942,66.9807005 106.917052,59.8976883 L96.6702625,69.8022343 C103.98354,80.534788 112.779344,85.3135737 124.884025,85.3135737 C141.371624,85.3135737 152.968459,74.3065948 152.968459,58.5555276 C152.968459,45.6070685 147.607703,39.7400445 129.525598,33.136488 Z M157.974356,42.6577848 C157.974356,66.6226858 176.78984,85.1826697 200.980274,85.1826697 C207.818827,85.1826697 213.681119,83.8310461 220.895035,80.424387 L220.895035,61.7271904 C214.534361,68.0847103 208.91495,70.6428591 201.705766,70.6428591 C185.708663,70.6428591 174.342092,59.0365605 174.342092,42.5410752 C174.342092,26.9146035 186.063522,14.5765041 200.980274,14.5765041 C208.541165,14.5765041 214.291478,17.2624025 220.895035,23.735055 L220.895035,5.03943561 C213.933464,1.50818104 208.18315,0.0540422711 201.34302,0.0540422711 C177.275604,0.0540422711 157.974356,18.9893895 157.974356,42.6577848 Z M349.625746,56.6061616 L327.883059,1.8914302 L310.537486,1.8914302 L345.116654,85.4255519 L353.660114,85.4255519 L388.843332,1.8914302 L371.625509,1.8914302 L349.625746,56.6061616 Z M396.065135,83.3452818 L441.130819,83.3452818 L441.130819,69.5561979 L411.942374,69.5561979 L411.942374,47.5548575 L440.014192,47.5548575 L440.014192,33.7626193 L411.942374,33.7626193 L411.942374,15.6836683 L441.130819,15.6836683 L441.130819,1.8914302 L396.065135,1.8914302 L396.065135,83.3452818 Z M504.019955,25.9304575 C504.019955,10.6714633 493.530284,1.8914302 475.19741,1.8914302 L451.62049,1.8914302 L451.62049,83.3452818 L467.515079,83.3452818 L467.515079,50.6082334 L469.595349,50.6082334 L491.569878,83.3452818 L511.114007,83.3452818 L485.447354,49.0342307 C497.435324,46.5833287 504.019955,38.3963067 504.019955,25.9304575 Z M472.137726,39.3820298 L467.515079,39.3820298 L467.515079,14.6995224 L472.391648,14.6995224 C482.307234,14.6995224 487.679032,18.864794 487.679032,26.7915853 C487.679032,34.9691444 482.307234,39.3820298 472.137726,39.3820298 Z" fill="#0B1015"></path>
	</g>
</svg>
